public/formular-icons/operators/CubeRoot.svg

<svg style="vertical-align:-.475ex" xmlns="http://www.w3.org/2000/svg" width="4.231ex" height="2.851ex" viewBox="0 -1050.3 1870 1260" xmlns:xlink="http://www.w3.org/1999/xlink"><defs><path id="b" d="M127 463q-27 0-42 17t-16 44q0 55 48 98t116 43q35 0 44-1 74-12 113-53t40-89q0-52-34-101t-94-71l-3-2q0-1 9-3t29-9 38-21q82-53 82-140 0-79-62-138T238-22q-80 0-138 43T42 130q0 28 18 45t45 18q28 0 46-18t18-45q0-11-3-20t-7-16-11-12-12-8-10-4-8-3l-4-1q51-45 124-45 55 0 83 53 17 33 17 101v20q0 95-64 127-15 6-61 7l-42 1-3 2q-2 3-2 16 0 18 8 18 28 0 58 5 34 5 62 42t28 112v8q0 57-35 79-22 14-47 14-32 0-59-11t-38-23-11-12h3q3-1 8-2t10-5 12-7 10-11 8-15 3-20q0-22-14-39t-45-18Z"/><path id="c" d="M263 249q1 0 52-119t102-238 53-120l255 530q256 535 257 537 7 11 19 11 7 0 12-6t7-12v-6L741 243Q645 43 540-176q-61-127-71-148t-16-24q-4-2-17-2l-12 1L315-96Q206 156 205 156l-34-26q-33-26-34-26l-26 26 152 119Z"/></defs><g stroke="currentColor" fill="currentColor" stroke-width="0"><g><g><g><text data-variant="normal" transform="translate(1020)" font-size="884" font-family="serif">⬚</text></g><use data-c="A0" xlink:href="#a" transform="matrix(1 0 0 -1 1620 0)"/></g><use data-c="33" xlink:href="#b" transform="matrix(.5 0 0 -.5 362 -461.3)"/><use data-c="221A" xlink:href="#c" transform="matrix(1 0 0 -1 0 -140.3)"/><path stroke="none" d="M1020-930.3h850v-60h-850z"/></g></g></svg>

<svg style="vertical-align: -0.475ex" xmlns="http://www.w3.org/2000/svg" width="4.231ex" height="2.851ex" role="img" focusable="false" viewBox="0 -1050.3 1870 1260" xmlns:xlink="http://www.w3.org/1999/xlink"><defs><path id="MJX-11-TEX-N-33" d="M127 463Q100 463 85 480T69 524Q69 579 117 622T233 665Q268 665 277 664Q351 652 390 611T430 522Q430 470 396 421T302 350L299 348Q299 347 308 345T337 336T375 315Q457 262 457 175Q457 96 395 37T238 -22Q158 -22 100 21T42 130Q42 158 60 175T105 193Q133 193 151 175T169 130Q169 119 166 110T159 94T148 82T136 74T126 70T118 67L114 66Q165 21 238 21Q293 21 321 74Q338 107 338 175V195Q338 290 274 322Q259 328 213 329L171 330L168 332Q166 335 166 348Q166 366 174 366Q202 366 232 371Q266 376 294 413T322 525V533Q322 590 287 612Q265 626 240 626Q208 626 181 615T143 592T132 580H135Q138 579 143 578T153 573T165 566T175 555T183 540T186 520Q186 498 172 481T127 463Z"></path><path id="MJX-11-TEX-SO-221A" d="M263 249Q264 249 315 130T417 -108T470 -228L725 302Q981 837 982 839Q989 850 1001 850Q1008 850 1013 844T1020 832V826L741 243Q645 43 540 -176Q479 -303 469 -324T453 -348Q449 -350 436 -350L424 -349L315 -96Q206 156 205 156L171 130Q138 104 137 104L111 130L263 249Z"></path><path id="MJX-11-TEX-N-A0" d=""></path></defs><g stroke="currentColor" fill="currentColor" stroke-width="0" transform="scale(1,-1)"><g data-mml-node="math"><g data-mml-node="mroot"><g><g data-mml-node="mrow" transform="translate(1020,0)"><g data-mml-node="TeXAtom" data-mjx-texclass="ORD"><g data-mml-node="mo"><text data-variant="normal" transform="scale(1,-1)" font-size="884px" font-family="serif">⬚</text></g></g><g data-mml-node="mtext" transform="translate(600,0)"><use data-c="A0" xlink:href="#MJX-11-TEX-N-A0"></use></g></g></g><g data-mml-node="mn" transform="translate(362,461.3) scale(0.5)"><use data-c="33" xlink:href="#MJX-11-TEX-N-33"></use></g><g data-mml-node="mo" transform="translate(0,140.3)"><use data-c="221A" xlink:href="#MJX-11-TEX-SO-221A"></use></g><rect width="850" height="60" x="1020" y="930.3"></rect></g></g></g></svg>
